X:1
T:Title
%%score { 1 | 2 }
L:1/8
M:4/4
K:G
V:1 treble nm="Grand Piano"
V:2 bass 
V:1
 z4 z2[Q:1/4=96] DD | G2 G2 GABc | d2 e2 d4 | [Gd]2 [GB]2 [FB] [FA]3 |[M:3/4] G6 |[M:1/4] DD | %6
[M:4/4] G2 G2 GABc | d2 e2 d4 | d2 A2 e3 [Fd] |[M:3/4] [Fd]6 |[M:1/4] [Fd]>[F^d] | %11
[M:4/4] [Fe]2 [Fd]2 [EFc]3 [DFB] | [CDA]2 [B,DG]2 [B,D]2 [G,DG]>[G,DF] | %13
 [G,CE]2 [CEG]2 [Ec]3 [Ec] |[M:3/4] B2 G2 B2 |[M:1/4] d>^d | %16
[M:4/4] [Fe]2 [Fd]2 [EFc]2 [DFB]>[CFA] | [B,FA]2 [B,EG]2 [Ge]4 | [Gd]2 [GB]2 [FB] [FA]3 | %19
[M:3/4] [B,DG]6 |] %20
V:2
 z4 z2 [G,B,][G,B,] | [G,B,D]2 [G,B,D]2 [G,B,D][K:treble][G,CD][G,DG][G,A,G] | %2
 [G,B,G]2 [G,CG]2 [G,B,G]4 | [D,B,]2 [D,D]2 [D,D] [D,C]3 |[M:3/4] [G,B,D]6 |[M:1/4] [G,B,][G,B,] | %6
[M:4/4][K:treble] [G,B,D]2 [G,B,D]2 [G,B,D][G,CD][G,DG][G,A,G] | [G,B,G]2 [G,CG]2 [G,B,G]4 | %8
 [A,F]2 [A,DF]2[K:bass] [A,,^CG]3 [D,A,] |[M:3/4] [D,A,]6 |[M:1/4] [D,A,]>[D,A,] | %11
[M:4/4] [D,C]2 [D,C]2 D,3 D, | G,2 G,2 G,2 B,,>B,, | C,2 C,2 [C,G,]3 [C,G,] | %14
[M:3/4][K:treble] [G,D]2 [G,B,D]2 [G,DG]2 |[M:1/4] [G,B,G]>[G,B,G] | %16
[M:4/4][K:bass] [D,C]2 [D,C]2 D,2 D,>D, | ^D,2 E,2 [C,C]4 | [D,B,]2 [D,D]2 [D,D] [D,C]3 | %19
[M:3/4] [G,,G,]6 |] %20

